X:88
T:deux amis, Les. CJF.088
T:Les deux amis. CJF.088
R:jig
S:C.J.Fox MS, 1829/33, Beverley,E.Yorks.
B:Kidson Coll.Mitchell Lib.M1805
O:England
A:East Yorkshire
Z:vmp.P J Headford 2000 & 2008
M:6/8
L:1/8
Q:3/8=120
K:D
” $”A|d3- dec|d3- dec|(a2^g )(a2g)|(ba).g (ag).e|\
d3- dec|d3- dec|(ba).f (ag).e|d2″ Fine”f d2h||!
c/d/|e2a c’2a|a2^g b2b|ba^g fed|(d3 c).A.A|\
ABc def|ea^g baf|eac edB|B3 A||!
K:F
b/a/|a2f age|d3 Adf|(ag).g (gf).f|(fe).e e2a|\
a2^c’ d’2f|(ag).g bag|fag fed|a3 A/c/=B/d/^c/” $”e/|]

